X:1
T:Title
%%score 1 { 2 | 3 }
L:1/8
Q:1/4=97
M:3/4
K:Bb
V:1 treble nm="Grand Piano, Unnamed-000"
V:2 bass nm="Choir Pad, Zerah, CM"
V:3 bass 
V:1
 [DF]2 [DB]>[DB] [DB]2 | [B,D]2 [A,C]>[CF] [CF]2 | [A,F]2 [B,F]3 [B,D] | [CE][A,C] [B,D]4 | %4
w: By~Lowell~Mason,~1837,~ad.~by~Riichard~Adams~2019 * * *||||
 [DF]2 [EG]>[EG] [GB]2 | [EG]2 [DF]>[DB] [DB]2 | [DF]2 [EG]3 [EG] | [GB][EG] [DF]3 B, | %8
w: ||||
 [B,D][CF] [B,B]3 F | [FB][Fc] [Fd]3 B, | [B,D][CF] [B,B]3 F | [FB][Fc] [Fd]3 [Gd] | %12
w: ||||
 [Gd][Gd] [Ge]4 | [FA]2 [FB]4- | [FB]4 z2 |] %15
w: |||
V:2
 F,2 F,>F, F,2 | F,2 z z/ A,/ A,2 | F,2 F,3 F, | F,F, F,4 | B,2 B,>B, B,2 | B,2 B,>F, F,2 | %6
 B,2 B,3 B, | B,B, B,3 B,, | F,F, D,3 F, | F,A, B,3 B,, | F,F, D,3 F, | F,A, B,3 =B, | %12
 =B,[K:treble]B, C4 | C2 D4- | D4 z2 |] %15
V:3
 B,,2 B,,>B,, B,,2 | B,,D, F,>F, F,2 | E,2 D,3 D, | F,,F,, D,4 | B,,2 E,>E, E,2 | %5
 E,2 B,,>B,, B,,2 | B,,2 E,3 E, | E,E, .B,,4 | B,,A,, .G,,4 | D,F, .B,,4 | B,,A,, .G,,4 | %11
 D,F, B,,3 G, | G,G, C,4 | F,2 B,,4- | B,,4 z2 |] %15

